X:278
T:Ronim Road
C:Karrnnel Sawitzky
S:Karrnnel Sawitzky's website recording
N:slightly different from his transcription
R:reel
M:4/4
L:1/8
K:Emin
DEED EdBd | edBd B_BAG | A3c BABc | gedB cBAc |
BE2D E2GE- | EA2E GEFG | Eg f/g/a gedB |1 e_bag edBG :|2 e3f gfed |:
Be e/e/e fefg | bgeg fefg | ce e/e/e fefg | _b/a/g a2- a2ge |1
BagA- Agfe- | efgf edcA | _Bega- a2A2- | Aege aged:|2
Be e/e/e fefg | bgeg fedA | Eg f/g/a gedB | e_bag edBG|]
